X: 110
T: Li hun
%%abc-version 2.0
%%abcx-abcm2ps-target-version 5.9.1 (29 Sep 2008)
%%abc-creator hum2abc beta
%%abcx-conversion-date 2013/10/02 07:52:29
%%abc-edited-by Helmut Schaffrath
%%humdrum-veritas 4021709321
%%humdrum-veritas-data 1739366574
%%continueall 1
%%barnumbers 0
L: 1/16
M: 2/4
K: G
e2> B2 B F A B [I:setbarnb 1]| 
e2> B2 B F A B | 
d e B A B A E G | 
A8 | 
d e B A B A E G | 
A8 | 
e2 B d e2 g B | 
A A B AG4 | 
E2 E GA4 | 
B d B A A E G A | 
D8 |]  



